img/insta.svg

<svg width="35" height="35" viewBox="0 0 35 35" fill="none" xmlns="http://www.w3.org/2000/svg">
<path fill-rule="evenodd" clip-rule="evenodd" d="M10.2852 0.105C12.1514 0.0190909 12.7464 0 17.5 0C22.2536 0 22.8486 0.0206818 24.7132 0.105C26.5777 0.189318 27.8505 0.486818 28.9641 0.917955C30.1302 1.35864 31.1882 2.0475 32.0632 2.93841C32.9541 3.81182 33.6414 4.86818 34.0805 6.03591C34.5132 7.14955 34.8091 8.42227 34.895 10.2836C34.9809 12.153 35 12.748 35 17.5C35 22.2536 34.9793 22.8486 34.895 24.7148C34.8107 26.5761 34.5132 27.8489 34.0805 28.9625C33.6414 30.1304 32.9529 31.1885 32.0632 32.0632C31.1882 32.9541 30.1302 33.6414 28.9641 34.0805C27.8505 34.5132 26.5777 34.8091 24.7164 34.895C22.8486 34.9809 22.2536 35 17.5 35C12.7464 35 12.1514 34.9793 10.2852 34.895C8.42386 34.8107 7.15114 34.5132 6.0375 34.0805C4.86965 33.6413 3.81153 32.9529 2.93682 32.0632C2.04651 31.1892 1.35755 30.1316 0.917955 28.9641C0.486818 27.8505 0.190909 26.5777 0.105 24.7164C0.0190909 22.847 0 22.252 0 17.5C0 12.7464 0.0206818 12.1514 0.105 10.2868C0.189318 8.42227 0.486818 7.14955 0.917955 6.03591C1.3582 4.86831 2.04769 3.81073 2.93841 2.93682C3.81188 2.04671 4.86893 1.35775 6.03591 0.917955C7.14955 0.486818 8.42227 0.190909 10.2836 0.105H10.2852ZM24.5716 3.255C22.7261 3.17068 22.1725 3.15318 17.5 3.15318C12.8275 3.15318 12.2739 3.17068 10.4284 3.255C8.72136 3.33295 7.79545 3.61773 7.17818 3.85795C6.36205 4.17614 5.77818 4.55318 5.16568 5.16568C4.58507 5.73054 4.13824 6.41818 3.85795 7.17818C3.61773 7.79545 3.33295 8.72136 3.255 10.4284C3.17068 12.2739 3.15318 12.8275 3.15318 17.5C3.15318 22.1725 3.17068 22.7261 3.255 24.5716C3.33295 26.2786 3.61773 27.2045 3.85795 27.8218C4.13795 28.5807 4.585 29.2695 5.16568 29.8343C5.73045 30.415 6.41932 30.862 7.17818 31.142C7.79545 31.3823 8.72136 31.667 10.4284 31.745C12.2739 31.8293 12.8259 31.8468 17.5 31.8468C22.1741 31.8468 22.7261 31.8293 24.5716 31.745C26.2786 31.667 27.2045 31.3823 27.8218 31.142C28.638 30.8239 29.2218 30.4468 29.8343 29.8343C30.415 29.2695 30.862 28.5807 31.142 27.8218C31.3823 27.2045 31.667 26.2786 31.745 24.5716C31.8293 22.7261 31.8468 22.1725 31.8468 17.5C31.8468 12.8275 31.8293 12.2739 31.745 10.4284C31.667 8.72136 31.3823 7.79545 31.142 7.17818C30.8239 6.36205 30.4468 5.77818 29.8343 5.16568C29.2694 4.58511 28.5818 4.13829 27.8218 3.85795C27.2045 3.61773 26.2786 3.33295 24.5716 3.255ZM15.2648 22.8948C16.5131 23.4144 17.9031 23.4845 19.1974 23.0932C20.4917 22.7018 21.6099 21.8733 22.3612 20.749C23.1125 19.6248 23.4501 18.2746 23.3164 16.929C23.1828 15.5835 22.5861 14.3261 21.6284 13.3716C21.0179 12.7614 20.2797 12.2942 19.4669 12.0036C18.6541 11.713 17.787 11.6063 16.9281 11.691C16.0691 11.7757 15.2396 12.0498 14.4992 12.4936C13.7589 12.9374 13.1262 13.5398 12.6466 14.2575C12.1671 14.9752 11.8526 15.7902 11.7258 16.644C11.5991 17.4978 11.6632 18.3691 11.9136 19.1951C12.164 20.0212 12.5944 20.7814 13.1739 21.4211C13.7533 22.0609 14.4674 22.5642 15.2648 22.8948ZM11.1395 11.1395C11.9748 10.3043 12.9664 9.64171 14.0577 9.18967C15.1491 8.73762 16.3188 8.50496 17.5 8.50496C18.6812 8.50496 19.8509 8.73762 20.9423 9.18967C22.0336 9.64171 23.0252 10.3043 23.8605 11.1395C24.6957 11.9748 25.3583 12.9664 25.8103 14.0577C26.2624 15.1491 26.495 16.3188 26.495 17.5C26.495 18.6812 26.2624 19.8509 25.8103 20.9423C25.3583 22.0336 24.6957 23.0252 23.8605 23.8605C22.1736 25.5474 19.8856 26.495 17.5 26.495C15.1144 26.495 12.8264 25.5474 11.1395 23.8605C9.45265 22.1736 8.50496 19.8856 8.50496 17.5C8.50496 15.1144 9.45265 12.8264 11.1395 11.1395ZM28.49 9.84455C28.697 9.64929 28.8627 9.41449 28.9773 9.15405C29.0919 8.89361 29.1531 8.61281 29.1573 8.3283C29.1614 8.04378 29.1084 7.76133 29.0014 7.49765C28.8945 7.23398 28.7357 6.99445 28.5345 6.79324C28.3333 6.59204 28.0938 6.43325 27.8301 6.32628C27.5664 6.21931 27.2839 6.16633 26.9994 6.17047C26.7149 6.17462 26.4341 6.23581 26.1737 6.35043C25.9132 6.46504 25.6784 6.63074 25.4832 6.83773C25.1034 7.24027 24.8955 7.77497 24.9036 8.3283C24.9117 8.88163 25.1351 9.41004 25.5264 9.80134C25.9177 10.1926 26.4461 10.416 26.9994 10.4241C27.5528 10.4322 28.0875 10.2243 28.49 9.84455Z" fill="white"/>
</svg>

<svg xmlns="http://www.w3.org/2000/svg" fill="none" viewBox="0 0 35 35"><path fill="#fff" fill-rule="evenodd" d="M10.285.105C12.151.019 12.746 0 17.5 0s5.349.02 7.213.105c1.865.084 3.137.382 4.251.813a8.61 8.61 0 0 1 3.1 2.02 8.548 8.548 0 0 1 2.017 3.098c.432 1.114.728 2.386.814 4.248.086 1.869.105 2.464.105 7.216 0 4.754-.02 5.349-.105 7.215-.084 1.861-.382 3.134-.815 4.247a8.585 8.585 0 0 1-2.017 3.101 8.581 8.581 0 0 1-3.099 2.017c-1.113.433-2.386.73-4.248.815-1.867.086-2.462.105-7.216.105s-5.349-.02-7.215-.105c-1.861-.084-3.134-.382-4.248-.815a8.587 8.587 0 0 1-3.1-2.017 8.58 8.58 0 0 1-2.019-3.099c-.431-1.113-.727-2.386-.813-4.248C.019 22.847 0 22.252 0 17.5c0-4.754.02-5.349.105-7.213.084-1.865.382-3.137.813-4.251a8.585 8.585 0 0 1 2.02-3.1A8.578 8.578 0 0 1 6.036.919C7.15.487 8.422.191 10.284.105h.001zm14.287 3.15c-1.846-.084-2.4-.102-7.072-.102-4.672 0-5.226.018-7.072.102-1.707.078-2.633.363-3.25.603-.816.318-1.4.695-2.012 1.308a5.428 5.428 0 0 0-1.308 2.012c-.24.617-.525 1.543-.603 3.25-.084 1.846-.102 2.4-.102 7.072 0 4.672.018 5.226.102 7.072.078 1.707.363 2.633.603 3.25.28.759.727 1.448 1.308 2.012a5.432 5.432 0 0 0 2.012 1.308c.617.24 1.543.525 3.25.603 1.846.084 2.398.102 7.072.102 4.674 0 5.226-.018 7.072-.102 1.707-.078 2.633-.363 3.25-.603.816-.318 1.4-.695 2.012-1.308a5.432 5.432 0 0 0 1.308-2.012c.24-.617.525-1.543.603-3.25.084-1.846.102-2.4.102-7.072 0-4.672-.018-5.226-.102-7.072-.078-1.707-.363-2.633-.603-3.25-.318-.816-.695-1.4-1.308-2.012a5.43 5.43 0 0 0-2.012-1.308c-.617-.24-1.543-.525-3.25-.603zm-9.307 19.64a5.838 5.838 0 0 0 6.363-9.523 5.837 5.837 0 1 0-6.363 9.523zM11.139 11.14a8.997 8.997 0 0 1 15.356 6.36 8.995 8.995 0 1 1-15.356-6.36zM28.49 9.845a2.127 2.127 0 1 0-2.919-3.095 2.127 2.127 0 0 0 2.919 3.095z" clip-rule="evenodd"/></svg>
